_includes/icons/color-paypal.svg

<svg fill="#666" height="50" viewBox="0 0 48 48" width="50" xmlns="http://www.w3.org/2000/svg"><path d="m18.699219 13.765625.003906.003906c.105469-.445312.484375-.769531.957031-.769531h13.472657c.015625 0 .03125-.007812.050781-.007812-.289063-4.777344-4.296875-6.992188-7.832031-6.992188h-13.472657c-.476562 0-.851562.335938-.957031.777344l-.003906-.003906-5.890625 27.039062h.015625c-.015625.066406-.039063.125-.039063.195313 0 .554687.445313.992187 1 .992187h8.070313z" fill="#1565c0"/><path d="m33.183594 12.992188c.050781.878906-.003906 1.832031-.230469 2.882812-1.28125 5.996094-5.910156 9.117188-11.632812 9.117188 0 0-3.472657 0-4.3125 0-.523438 0-.769532.304687-.882813.539062l-1.738281 8.046875-.304688 1.429688h-.007812l-1.261719 5.796875h.011719c-.011719.066406-.039063.125-.039063.195312 0 .554688.449219 1 1 1h7.332032l.015625-.011719c.472656-.003906.847656-.34375.945312-.785156l.015625-.015625 1.8125-8.417969s.125-.800781.972656-.800781h4.175782c5.722656 0 10.402343-3.105469 11.683593-9.101562 1.441407-6.761719-3.378906-9.847657-7.554687-9.875z" fill="#039be5"/><path d="m19.660156 13c-.472656 0-.851562.324219-.957031.769531l-.003906-.003906-2.574219 11.765625c.113281-.234375.359375-.539062.878906-.539062h4.234375c5.726563 0 10.433594-3.121094 11.714844-9.113282.226563-1.054687.28125-2.007812.230469-2.882812-.019531-.003906-.035156.003906-.050781.003906z" fill="#283593"/></svg>

<svg xmlns="http://www.w3.org/2000/svg" viewBox="0 0 48 48" width="50" height="50" fill="#666"><path d="M 18.699219 13.765625 L 18.703125 13.769531 C 18.808594 13.324219 19.1875 13 19.660156 13 L 33.132813 13 C 33.148438 13 33.164063 12.992188 33.183594 12.992188 C 32.894531 8.214844 28.886719 6 25.351563 6 L 11.878906 6 C 11.402344 6 11.027344 6.335938 10.921875 6.777344 L 10.917969 6.773438 L 5.027344 33.8125 L 5.042969 33.8125 C 5.027344 33.878906 5.003906 33.9375 5.003906 34.007813 C 5.003906 34.5625 5.449219 35 6.003906 35 L 14.074219 35 Z" fill="#1565c0"/><path d="M 33.183594 12.992188 C 33.234375 13.871094 33.179688 14.824219 32.953125 15.875 C 31.671875 21.871094 27.042969 24.992188 21.320313 24.992188 C 21.320313 24.992188 17.847656 24.992188 17.007813 24.992188 C 16.484375 24.992188 16.238281 25.296875 16.125 25.53125 L 14.386719 33.578125 L 14.082031 35.007813 L 14.074219 35.007813 L 12.8125 40.804688 L 12.824219 40.804688 C 12.8125 40.871094 12.785156 40.929688 12.785156 41 C 12.785156 41.554688 13.234375 42 13.785156 42 L 21.117188 42 L 21.132813 41.988281 C 21.605469 41.984375 21.980469 41.644531 22.078125 41.203125 L 22.09375 41.1875 L 23.90625 32.769531 C 23.90625 32.769531 24.03125 31.96875 24.878906 31.96875 C 25.722656 31.96875 29.054688 31.96875 29.054688 31.96875 C 34.777344 31.96875 39.457031 28.863281 40.738281 22.867188 C 42.179688 16.105469 37.359375 13.019531 33.183594 12.992188 Z" fill="#039be5"/><path d="M 19.660156 13 C 19.1875 13 18.808594 13.324219 18.703125 13.769531 L 18.699219 13.765625 L 16.125 25.53125 C 16.238281 25.296875 16.484375 24.992188 17.003906 24.992188 C 17.847656 24.992188 21.238281 24.992188 21.238281 24.992188 C 26.964844 24.992188 31.671875 21.871094 32.953125 15.878906 C 33.179688 14.824219 33.234375 13.871094 33.183594 12.996094 C 33.164063 12.992188 33.148438 13 33.132813 13 Z" fill="#283593"/></svg>
